X:313
T:My Walking Shoes Don't Fit me Anymore
C:
N:Transcribed by Michael Bunting
R:bluegrass
L:1/8
Q:1/4=240
M:4/4
K:A
z8 | zA E2 E2 F2 | "A"A2 AA AA A=c | cf e=c BA FE | A2 AB AF EF | A2 AA AB ce | 
fc ef ec Bc | BF EF AB ce | "E7"c2 [e2B2] BB Bc | B2 BB BA B=c | "A"ce =cB A^c ef | 
"A7"=gf ec Ac ea | "D"=f^f dB AB de | d2 dd de fg | "A"ae cf ec Bd | "E7"cB AF EF AB | 
"A"A2 =GE DE =C^C | A,2 A,A, DA, =C^C | A2 AA ED =C^C | A,8 | 


